X: 303
T: Mr E Marjoribanks' Quick Step
C: by J Pringle
B: John Pringle "Collection of Reels Strathspeys & Jigs", 1801 p.30#3
Z: 2011 John Chambers <jc:trillian.mit.edu>
Q: "Slowish"
R: reel
M: 2/4
L: 1/16
K: Bb
V: 1
dc |\
B2B,2D2F2 | {E}G4 ~G2A2 | (B>A)(c>B) (e>d)(g>f) | (edcB) {A}G2dc |\
B2B,2D2F2 | E2G2 G2(cB) | (ABcA) .F2.A2 | B4 B2 :|
|: dc |\
B3c (Bcde) | (fgab) {=B}c4 | e2e2 (ge)(cB) | A3B c2de |\
f3d B2(AG) | F2GA B2cd | e2e2 ( dcBA) | (cBA).c B2 :|
V: 2 clef=bass middle=d
z2 |\
B2d2f2d2 | e2E2G2B2 | B4 F4 | B2d2 e2E2 |\
z2d2f2d2 | e2E2G2B2 | c2=e2f2F2 | B2b2 B2 :|
|: z2 |\
b2B2d2f2 | B2b2a2f2 | e2g2c'2a2 | f2g2a2f2 |\
B2b2d2=e2 | f2a2b2B2 | e2g2 c'2a2 | b2f2 B2 :|

%%sep 2 1 500

